; generated by PrusaSlicer 2.9.4 on 2026-03-18 at 20:44:20 UTC


;
;

;
;

;
;

;
;
; 

; external perimeters extrusion width = 0.45mm
; perimeters extrusion width = 0.45mm
; infill extrusion width = 0.45mm
; solid infill extrusion width = 0.45mm
; top infill extrusion width = 0.42mm
; support material extrusion width = 0.40mm
; first layer extrusion width = 0.50mm

M73 P0 R60
M73 Q0 S66
M201 X10000 Y10000 Z400 E5000 ; sets maximum accelerations, mm/sec^2
M203 X500 Y500 Z15 E100 ; sets maximum feedrates, mm / sec
M204 P7000 R2500 T6000 ; sets acceleration (P, T) and retract acceleration (R), mm/sec^2
M205 X10.00 Y10.00 Z2.00 E10.00 ; sets the jerk limits, mm/sec
M205 J0.010 ; sets the junction deviation, mm
M205 S0 T0 ; sets the minimum extruding and travel feed rate, mm/sec

M486 S0
M486 AFSH - Base - CH21.stl
M486 S-1

;TYPE:Custom
M17 ; enable steppers
M862.1 P0.4 A0 F1 ; nozzle check
M862.3 P "COREONEL" ; printer model check
M862.5 P2 ; g-code level check
M862.6 P"Input shaper" ; FW feature check
M115 U6.5.2+12579

M555 X113.42 Y125.956 W73.161 H44.0882

G90 ; use absolute coordinates
M83 ; extruder relative mode

M140 S110 ; set bed temp

M106 P5 R A125 B10 C5 ;turn on bed fans with fade for chamber or bed


M109 R170 ; wait for temp

M84 E ; turn off E motor

G28 ; home all without mesh bed level

G1 Z20 F720 ;lift bed to optimal bed fan height


; Min chamber temp section
M104 S170 ; set idle temp
G1 X292 Y-5 F4800 ; set print head position
M191 S55
M141 S55 ; set nominal chamber temp
M104 S170 ; set MBL temp
M106 P3 N25 G5



M190 R110 ; wait for bed temp
M107

M109 R170 ; wait for MBL temp

M302 S155 ; lower cold extrusion limit to 155C


G1 E-2 F2400 ; retraction


M84 E ; turn off E motor

G29 P9 X208 Y-2.5 W32 H4

;
; MBL
;

M84 E ; turn off E motor
G29 P1 ; invalidate mbl & probe print area
G29 P1 X150 Y0 W100 H20 C ; probe near purge place
G29 P3.2 ; interpolate mbl probes
G29 P3.13 ; extrapolate mbl outside probe area
G29 A ; activate mbl

; prepare for purge
M104 S260
G0 X249 Y-2.5 Z15 F4800 ; move away and ready for the purge
M109 S260

G92 E0
M569 S0 E ; set spreadcycle mode for extruder

M591 S0 ; disable stuck detection

;
; Extrude purge line
;
G92 E0 ; reset extruder position
G1 E2 F2400 ; deretraction after the initial one
G0 E5 X235 Z0.2 F500 ; purge
G0 X225 E4 F500 ; purge
G0 X215 E4 F650 ; purge
G0 X205 E4 F800 ; purge
G0 X202 Z0.05 F8000 ; wipe, move close to the bed
G0 X199 Z0.2 F8000 ; wipe, move quickly away from the bed

M591 R ; restore stuck detection

G92 E0
M221 S100 ; set flow to 100%
G21 ; set units to millimeters
G90 ; use absolute coordinates
M83 ; use relative distances for extrusion
M572 S0.02 ; Filament gcode
M142 S40 ; set heatbreak target temp
M107
;LAYER_CHANGE
;Z:0.2
;HEIGHT:0.2
G1 E-.7 F2700
G1 Z1.7 F480
M486 S0
G1 X152.138 Y152.334 F30000
G1 Z.2 F480
G1 E.7 F1500
M204 P500
;TYPE:Perimeter
;WIDTH:0.499999
G1 F2700
G1 X152.1 Y152.007 E.01251
G1 X152.104 Y147.888 E.15655
G1 X152.238 Y147.301 E.02288
G1 X152.347 Y147.073 E.0096
G1 X152.644 Y146.668 E.01909
G1 X152.814 Y146.515 E.00869
G1 X153.268 Y146.236 E.02025
G1 X153.871 Y146.1 E.02349
G1 X154.648 Y146.086 E.02954
G1 X167.041 Y146.086 E.47101
G1 X167.551 Y146.162 E.0196
G1 X168.036 Y146.369 E.02004
G1 X168.445 Y146.711 E.02026
G1 X168.731 Y147.121 E.019
G1 X168.899 Y147.589 E.0189
G1 X168.947 Y147.993 E.01546
G1 X168.947 Y152.008 E.1526
G1 X168.84 Y152.607 E.02313
G1 X168.754 Y152.828 E.00901
G1 X168.482 Y153.253 E.01918
G1 X168.064 Y153.611 E.02092
G1 X167.59 Y153.827 E.0198
G1 X167.091 Y153.913 E.01924
G1 X154.005 Y153.914 E.49735
G1 X153.496 Y153.838 E.01956
G1 X153.011 Y153.631 E.02004
G1 X152.611 Y153.302 E.01968
G1 X152.316 Y152.879 E.0196
G1 X152.147 Y152.411 E.01891
G1 X152.145 Y152.394 E.00065
M204 P3000
M204 T250
G1 X152.584 Y152.256 F30000
M204 T6000
M204 P500
;TYPE:External perimeter
G1 F2700
G3 X152.557 Y152.007 I1.52 J-.296 E.00953
G1 X152.561 Y147.889 E.15651
G1 X152.686 Y147.398 E.01926
G1 X152.998 Y146.958 E.0205
G1 X153.418 Y146.672 E.01931
G1 X153.961 Y146.548 E.02117
G1 X154.648 Y146.543 E.02611
G1 X167.041 Y146.543 E.47101
G1 X167.385 Y146.588 E.01319
G1 X167.789 Y146.754 E.0166
G1 X168.084 Y146.991 E.01438
G1 X168.308 Y147.296 E.01438
G1 X168.446 Y147.649 E.0144
G1 X168.49 Y148.366 E.0273
G1 X168.49 Y152.008 E.13842
G1 X168.392 Y152.518 E.01974
G1 X168.137 Y152.952 E.01913
G1 X167.845 Y153.21 E.01481
G1 X167.501 Y153.379 E.01457
G1 X167.091 Y153.456 E.01585
G1 X154.005 Y153.457 E.49735
G1 X153.661 Y153.412 E.01319
G1 X153.258 Y153.246 E.01657
G1 X152.942 Y152.982 E.01565
G3 X152.597 Y152.314 I1.162 J-1.022 E.02886
M204 P3000
G1 X152.562 Y151.916 F30000
G1 E-.7 F2700
G1 X176.587 Y151.975 Z.619 F27503.399
G1 Z.2 F480
G1 E.7 F1500
M204 P500
;TYPE:Perimeter
G1 F2700
G1 X176.306 Y151.672 E.01571
G1 X176.043 Y151.241 E.01919
G1 X175.838 Y150.681 E.02266
G1 X175.759 Y150.182 E.0192
G1 X175.785 Y149.585 E.02271
G3 X176.05 Y148.746 I5.75 J1.353 E.03347
G1 X176.322 Y148.303 E.01976
G1 X176.658 Y147.932 E.01902
G1 X177.095 Y147.606 E.02072
G1 X177.647 Y147.345 E.02321
G1 X178.351 Y147.201 E.02731
G1 X178.879 Y147.209 E.02007
G1 X179.399 Y147.324 E.02024
G1 X179.916 Y147.538 E.02127
G1 X180.404 Y147.88 E.02265
G1 X180.881 Y148.417 E.0273
G1 X181.175 Y148.97 E.0238
G1 X181.336 Y149.56 E.02324
G1 X181.356 Y150.278 E.0273
G1 X181.226 Y150.89 E.02378
G1 X180.971 Y151.445 E.02321
G1 X180.674 Y151.853 E.01918
G1 X180.145 Y152.318 E.02677
G1 X179.593 Y152.612 E.02377
G1 X179.004 Y152.773 E.02321
G1 X178.5 Y152.809 E.0192
G1 X177.908 Y152.731 E.02269
G1 X177.238 Y152.474 E.02727
G1 X176.722 Y152.12 E.02378
G1 X176.628 Y152.019 E.00524
M204 P3000
M204 T250
G1 X176.906 Y151.656 F30000
M204 T6000
M204 P500
;TYPE:External perimeter
G1 F2700
G1 X176.65 Y151.37 E.01459
G3 X176.211 Y150.092 I2.116 J-1.442 E.05197
G1 X176.252 Y149.562 E.0202
G1 X176.418 Y149.033 E.02107
G1 X176.681 Y148.588 E.01965
G1 X176.992 Y148.248 E.01751
G1 X177.408 Y147.95 E.01945
G1 X177.884 Y147.748 E.01965
G1 X178.431 Y147.651 E.02111
G1 X178.797 Y147.659 E.01391
G1 X179.339 Y147.779 E.0211
G1 X179.761 Y147.975 E.01768
G1 X180.174 Y148.286 E.01965
G1 X180.531 Y148.711 E.0211
G1 X180.765 Y149.172 E.01965
G1 X180.892 Y149.668 E.01946
G1 X180.899 Y150.278 E.02319
G1 X180.782 Y150.781 E.01963
G1 X180.561 Y151.243 E.01946
G1 X180.277 Y151.611 E.01767
G1 X179.852 Y151.968 E.0211
G1 X179.391 Y152.203 E.01967
G1 X178.895 Y152.329 E.01945
G1 X178.435 Y152.35 E.0175
G1 X177.937 Y152.269 E.01918
G1 X177.413 Y152.052 E.02156
G1 X176.992 Y151.752 E.01965
G1 X176.946 Y151.701 E.00261
M204 P3000
G1 X176.681 Y151.402 F30000
G1 E-.7 F2700
G1 X184.47 Y162.153 Z.432 F27503.422
G1 Z.2 F480
G1 E.7 F1500
M204 P500
;TYPE:Perimeter
G1 F2700
G1 X184.472 Y162.205 E.00198
G1 X184.331 Y162.936 E.02829
G1 X184.001 Y163.62 E.02886
G1 X183.589 Y164.12 E.02462
G1 X183.088 Y164.507 E.02406
G1 X182.62 Y164.74 E.01987
G1 X182.023 Y164.899 E.02348
G1 X181.279 Y164.919 E.02829
G1 X180.645 Y164.784 E.02464
G1 X180.167 Y164.576 E.01981
G1 X179.66 Y164.221 E.02352
G1 X179.231 Y163.755 E.02407
G1 X178.87 Y163.104 E.02829
G1 X178.697 Y162.48 E.02461
G1 X178.666 Y161.848 E.02405
G1 X178.744 Y161.331 E.01987
G1 X178.993 Y160.687 E.02624
G1 X179.375 Y160.117 E.02608
G1 X179.84 Y159.688 E.02405
G1 X180.286 Y159.415 E.01987
G1 X180.867 Y159.204 E.02349
G1 X181.383 Y159.123 E.01985
G1 X181.882 Y159.134 E.01897
G1 X182.408 Y159.243 E.02042
G1 X182.945 Y159.465 E.02208
G1 X183.479 Y159.832 E.02463
G1 X183.908 Y160.297 E.02405
G1 X184.269 Y160.949 E.02832
G1 X184.442 Y161.573 E.02461
G1 X184.467 Y162.093 E.01979
M204 P3000
M204 T250
G1 X184.013 Y162.133 F30000
M204 T6000
M204 P500
;TYPE:External perimeter
G1 F2700
G1 X184.015 Y162.215 E.00312
G1 X183.884 Y162.837 E.02416
G1 X183.595 Y163.409 E.02436
G1 X183.245 Y163.818 E.02046
G1 X182.818 Y164.138 E.02028
G1 X182.385 Y164.34 E.01816
G1 X181.86 Y164.462 E.02048
G1 X181.279 Y164.462 E.02208
G1 X180.754 Y164.34 E.02048
G1 X180.321 Y164.138 E.01816
G1 X179.894 Y163.818 E.02028
G1 X179.543 Y163.409 E.02048
G1 X179.275 Y162.893 E.0221
G1 X179.141 Y162.372 E.02045
G1 X179.123 Y161.838 E.02031
G1 X179.208 Y161.363 E.01834
G1 X179.431 Y160.826 E.0221
G1 X179.744 Y160.388 E.02046
G1 X180.146 Y160.028 E.02051
G1 X180.555 Y159.793 E.01793
G1 X181.033 Y159.631 E.01918
G3 X182.233 Y159.665 I.528 J2.57 E.04603
G1 X182.77 Y159.888 E.0221
G1 X183.208 Y160.201 E.02046
G1 X183.565 Y160.599 E.02032
G1 X183.864 Y161.16 E.02416
G1 X183.998 Y161.681 E.02045
G1 X184.011 Y162.073 E.01491
M204 P3000
G1 X183.957 Y162.47 F30000
G1 E-.7 F2700
G1 X179.012 Y136.642 Z.659 F27503.404
G1 Z.2 F480
G1 E.7 F1500
M204 P500
;TYPE:Perimeter
G1 F2700
G1 X179.138 Y136.38 E.01105
G1 X179.633 Y135.805 E.02884
G1 X180.26 Y135.378 E.02883
G1 X180.969 Y135.125 E.02861
G1 X181.473 Y135.064 E.01929
G3 X182.408 Y135.19 I-.002 J3.548 E.03596
G1 X182.945 Y135.413 E.0221
G1 X183.479 Y135.78 E.02463
G1 X183.908 Y136.245 E.02405
G1 X184.269 Y136.896 E.02829
G1 X184.442 Y137.52 E.02461
G1 X184.478 Y138.041 E.01985
G1 X184.397 Y138.654 E.0235
G1 X184.131 Y139.349 E.02828
G1 X183.764 Y139.883 E.02463
G1 X183.388 Y140.245 E.01984
G1 X182.866 Y140.577 E.02351
G1 X182.272 Y140.796 E.02406
G3 X181.368 Y140.875 I-.99 J-6.113 E.03452
G1 X180.852 Y140.795 E.01985
G1 X180.293 Y140.587 E.02267
G1 X179.672 Y140.176 E.0283
G3 X179.138 Y139.567 I3.452 J-3.566 E.03082
G1 X178.87 Y139.051 E.0221
G1 X178.697 Y138.427 E.02461
G1 X178.666 Y137.795 E.02405
G1 X178.808 Y137.064 E.0283
G1 X178.986 Y136.696 E.01554
M204 P3000
M204 T250
G1 X179.412 Y136.851 F30000
M204 T6000
M204 P500
;TYPE:External perimeter
G1 F2700
G1 X179.543 Y136.591 E.01107
G1 X179.97 Y136.114 E.02433
G1 X180.506 Y135.763 E.02435
G1 X181.048 Y135.575 E.0218
G3 X181.803 Y135.531 I.552 J2.955 E.02882
G1 X182.353 Y135.662 E.02149
G1 X182.818 Y135.862 E.01924
G1 X183.245 Y136.182 E.02028
G1 X183.595 Y136.591 E.02046
G1 X183.864 Y137.107 E.02212
G1 X183.998 Y137.628 E.02045
G1 X184.019 Y138.106 E.01818
G1 X183.931 Y138.637 E.02046
G1 X183.708 Y139.174 E.0221
G1 X183.395 Y139.612 E.02046
G1 X183.043 Y139.935 E.01816
G1 X182.583 Y140.207 E.02031
G1 X182.071 Y140.374 E.02047
G1 X181.492 Y140.425 E.02209
G1 X180.959 Y140.35 E.02046
G1 X180.459 Y140.161 E.02032
G1 X179.935 Y139.802 E.02414
G1 X179.574 Y139.401 E.02051
G1 X179.275 Y138.84 E.02416
G1 X179.141 Y138.319 E.02045
G1 X179.123 Y137.785 E.02031
G1 X179.255 Y137.163 E.02417
G1 X179.385 Y136.904 E.01101
M204 P3000
G1 X179.587 Y136.559 F30000
G1 E-.7 F2700
G1 X127.237 Y151.861 Z1.152 F27503.381
G1 Z.2 F480
G1 E.7 F1500
M204 P500
;TYPE:Perimeter
G1 F2700
G3 X127.041 Y151.626 I4.667 J-4.068 E.01163
G1 X126.755 Y151.078 E.02349
G1 X126.582 Y150.453 E.02465
G1 X126.562 Y149.709 E.02829
G1 X126.697 Y149.076 E.0246
G1 X126.962 Y148.501 E.02406
G1 X127.426 Y147.918 E.02832
G1 X127.936 Y147.519 E.02461
G1 X128.509 Y147.25 E.02406
G1 X129.239 Y147.101 E.02832
G1 X129.886 Y147.124 E.02461
G1 X130.394 Y147.246 E.01986
G1 X130.954 Y147.508 E.0235
G1 X131.537 Y147.971 E.0283
G1 X131.935 Y148.482 E.02462
M73 Q0 S65
G1 X132.205 Y149.054 E.02404
G1 X132.331 Y149.561 E.01986
G1 X132.347 Y150.291 E.02775
G1 X132.212 Y150.924 E.0246
G1 X131.947 Y151.499 E.02406
G1 X131.64 Y151.921 E.01983
G1 X131.184 Y152.339 E.02351
G1 X130.738 Y152.611 E.01985
G1 X130.157 Y152.822 E.02349
G1 X129.417 Y152.907 E.02831
G1 X128.774 Y152.828 E.02462
G1 X128.179 Y152.614 E.02403
G1 X127.558 Y152.203 E.0283
G3 X127.276 Y151.906 I4.347 J-4.41 E.01557
M204 P3000
M204 T250
G1 X127.586 Y151.568 F30000
M204 T6000
M204 P500
;TYPE:External perimeter
G1 F2700
G1 X127.46 Y151.428 E.00716
G1 X127.16 Y150.867 E.02418
G1 X127.026 Y150.345 E.02048
G1 X127.019 Y149.709 E.02417
G1 X127.141 Y149.184 E.02048
G1 X127.372 Y148.703 E.02028
G1 X127.776 Y148.212 E.02417
G1 X128.207 Y147.888 E.02049
G1 X128.693 Y147.668 E.02028
G1 X129.318 Y147.551 E.02417
G1 X129.856 Y147.58 E.02048
G1 X130.317 Y147.703 E.01813
G1 X130.768 Y147.927 E.01914
G1 X131.243 Y148.321 E.02346
G1 X131.567 Y148.752 E.02049
G1 X131.787 Y149.238 E.02028
G1 X131.89 Y149.709 E.01832
G1 X131.89 Y150.291 E.02212
G1 X131.768 Y150.816 E.02048
G1 X131.537 Y151.297 E.02028
G1 X131.247 Y151.676 E.01814
G1 X130.865 Y152.009 E.01926
G1 X130.469 Y152.234 E.01731
G1 X129.99 Y152.395 E.01921
G1 X129.377 Y152.451 E.02339
G1 X128.844 Y152.376 E.02046
G1 X128.344 Y152.188 E.0203
G1 X127.82 Y151.828 E.02416
G1 X127.626 Y151.613 E.01101
M204 P3000
G1 X127.393 Y151.287 F30000
G1 E-.7 F2700
G1 X119.55 Y164.086 Z.462 F27503.452
G1 Z.2 F480
G1 E.7 F1500
M204 P500
;TYPE:Perimeter
G1 F2700
G1 X119.335 Y163.888 E.01111
G1 X119.035 Y163.483 E.01916
G1 X118.782 Y162.942 E.0227
G1 X118.638 Y162.238 E.02731
G1 X118.66 Y161.612 E.02381
G1 X118.857 Y160.922 E.02727
G1 X119.266 Y160.248 E.02996
G1 X119.658 Y159.855 E.0211
G1 X120.183 Y159.514 E.02379
G1 X120.756 Y159.302 E.02322
G1 X121.47 Y159.22 E.02731
G1 X121.987 Y159.271 E.01974
G1 X122.526 Y159.441 E.02148
G1 X123.087 Y159.754 E.02442
G1 X123.539 Y160.165 E.02322
G1 X123.84 Y160.57 E.01918
G1 X124.092 Y161.111 E.02268
G1 X124.214 Y161.601 E.01919
G1 X124.23 Y162.304 E.02673
G1 X124.101 Y162.916 E.02377
G1 X123.899 Y163.379 E.0192
G1 X123.557 Y163.868 E.02268
G1 X123.108 Y164.283 E.02324
G1 X122.481 Y164.632 E.02727
G1 X121.878 Y164.8 E.02379
G1 X121.267 Y164.83 E.02325
G1 X120.768 Y164.755 E.01918
G1 X120.207 Y164.551 E.02269
G1 X119.775 Y164.291 E.01916
G1 X119.595 Y164.126 E.00928
M204 P3000
M204 T250
G1 X119.856 Y163.752 F30000
M204 T6000
M204 P500
;TYPE:External perimeter
G1 F2700
G1 X119.622 Y163.524 E.01242
G1 X119.387 Y163.181 E.0158
G1 X119.185 Y162.706 E.01962
G1 X119.088 Y162.158 E.02115
G1 X119.116 Y161.642 E.01964
G1 X119.293 Y161.059 E.02316
G1 X119.589 Y160.571 E.02169
G1 X119.982 Y160.178 E.02112
G1 X120.42 Y159.905 E.01962
G1 X120.903 Y159.735 E.01946
G1 X121.51 Y159.675 E.02318
G1 X121.971 Y159.735 E.01767
G1 X122.454 Y159.905 E.01946
G1 X122.889 Y160.175 E.01946
G1 X123.253 Y160.529 E.0193
G3 X123.687 Y161.333 I-2.309 J1.765 E.03487
G1 X123.773 Y161.749 E.01614
G1 X123.773 Y162.304 E.02109
G1 X123.657 Y162.808 E.01966
G1 X123.462 Y163.225 E.0175
G1 X123.155 Y163.635 E.01947
G1 X122.762 Y163.97 E.01963
G1 X122.27 Y164.227 E.0211
G1 X121.769 Y164.356 E.01966
G1 X121.257 Y164.373 E.01947
G1 X120.804 Y164.293 E.01748
G1 X120.333 Y164.105 E.01927
G1 X119.985 Y163.878 E.01579
G1 X119.899 Y163.794 E.00457
M204 P3000
G1 X119.621 Y163.506 F30000
G1 E-.7 F2700
G1 X118.764 Y138.816 Z.631 F27503.401
G1 Z.2 F480
G1 E.7 F1500
M204 P500
;TYPE:Perimeter
G1 F2700
G1 X118.66 Y138.4 E.0163
G1 X118.634 Y137.804 E.02267
G1 X118.77 Y137.099 E.02729
G1 X119.029 Y136.529 E.0238
G1 X119.326 Y136.12 E.01921
G1 X119.765 Y135.717 E.02265
G1 X120.196 Y135.453 E.01921
G1 X120.757 Y135.249 E.02269
G1 X121.685 Y135.181 E.03536
G1 X122.327 Y135.31 E.02489
G1 X122.79 Y135.511 E.01918
G1 X123.279 Y135.853 E.02268
G1 X123.692 Y136.3 E.02313
G1 X123.957 Y136.732 E.01926
G1 X124.162 Y137.293 E.0227
G1 X124.244 Y138.007 E.02731
G1 X124.168 Y138.628 E.02378
G1 X123.912 Y139.299 E.0273
G1 X123.558 Y139.815 E.02378
G1 X123.109 Y140.23 E.02324
G1 X122.678 Y140.494 E.01921
G1 X122.12 Y140.697 E.02257
G1 X121.62 Y140.777 E.01924
G1 X121.085 Y140.755 E.02035
G1 X120.533 Y140.633 E.02149
G1 X119.992 Y140.381 E.02268
G1 X119.429 Y139.935 E.0273
G1 X119.043 Y139.442 E.0238
G1 X118.782 Y138.889 E.02324
G1 X118.779 Y138.874 E.00058
M204 P3000
M204 T250
G1 X119.195 Y138.68 F30000
M204 T6000
M204 P500
;TYPE:External perimeter
G1 F2700
G1 X119.101 Y138.256 E.01651
G1 X119.096 Y137.739 E.01965
G1 X119.216 Y137.198 E.02106
G1 X119.439 Y136.731 E.01967
G1 X119.689 Y136.398 E.01583
G1 X120.067 Y136.061 E.01925
G1 X120.466 Y135.83 E.01752
G1 X120.967 Y135.67 E.01999
G1 X121.705 Y135.638 E.02807
G1 X122.218 Y135.754 E.01999
G1 X122.635 Y135.948 E.01748
G1 X123.045 Y136.256 E.01949
G1 X123.375 Y136.638 E.01919
G1 X123.58 Y137.002 E.01588
G1 X123.74 Y137.494 E.01966
G1 X123.789 Y138.047 E.0211
G1 X123.716 Y138.559 E.01966
G1 X123.489 Y139.124 E.02314
G1 X123.189 Y139.545 E.01965
