; generated by PrusaSlicer 2.9.4 on 2026-03-14 at 19:57:58 UTC

; 

; external perimeters extrusion width = 0.45mm
; perimeters extrusion width = 0.45mm
; infill extrusion width = 0.45mm
; solid infill extrusion width = 0.45mm
; top infill extrusion width = 0.40mm
; first layer extrusion width = 0.42mm

M190 S60 ; set bed temperature and wait for it to be reached
M104 S200 ; set temperature
;TYPE:Custom
G28 ; home all axes
G1 Z5 F5000 ; lift nozzle
M109 S200 ; set temperature and wait for it to be reached
G21 ; set units to millimeters
G90 ; use absolute coordinates
M82 ; use absolute distances for extrusion
G92 E0
; Filament gcode
M107
;LAYER_CHANGE
;Z:0.35
;HEIGHT:0.35
G1 E-2 F2400
G92 E0
G1 Z.35 F7800
G1 X70.028 Y67.035
G1 E2 F2400
;TYPE:Skirt/Brim
;WIDTH:0.42
G1 F1800
G1 X75.541 Y61.276 E2.4001
G1 X77.469 Y59.915 E2.51854
G1 X93.479 Y52.716 E3.39951
G1 X96.01 Y52.173 E3.52942
G1 X136.01 Y52.173 E5.53686
G1 X138.187 Y52.569 E5.64791
G1 X140.085 Y53.709 E5.75902
G1 X141.458 Y55.444 E5.87006
G1 X142.182 Y58.345 E6.02011
G1 X142.182 Y141.655 E10.2011
G1 X141.786 Y143.832 E10.31215
G1 X140.646 Y145.73 E10.42326
G1 X138.911 Y147.103 E10.5343
G1 X136.01 Y147.827 E10.68435
G1 X96.01 Y147.827 E12.69179
G1 X63.921 Y147.471 E14.3023
G1 X61.749 Y147.05 E14.41333
G1 X59.864 Y145.89 E14.52441
G1 X58.51 Y144.139 E14.63549
G1 X57.818 Y141.299 E14.78219
G1 X57.818 Y82.269 E17.74466
G1 X58.214 Y80.092 E17.85571
G1 X59.531 Y78.001 E17.97973
G1 X69.986 Y67.079 E18.73851
G1 E16.73851 F2400
G92 E0
G92 E0
G1 X74.09 Y92.369 F7800
G1 E2 F2400
;TYPE:Perimeter
;WIDTH:0.42
G1 F1800
G1 X64.89 Y92.369 E2.46171
G1 X64.89 Y83.169 E2.92342
G1 X74.09 Y83.169 E3.38513
G1 X74.09 Y92.309 E3.84383
G1 X74.435 Y92.714 F7800
G1 F1800
G1 X64.545 Y92.714 E4.34017
G1 X64.545 Y82.824 E4.83651
G1 X74.435 Y82.824 E5.33285
G1 X74.435 Y92.654 E5.82618
G1 X74.78 Y93.059 F7800
;TYPE:External perimeter
G1 F1800
G1 X64.2 Y93.059 E6.35715
G1 X64.2 Y82.479 E6.88812
G1 X74.78 Y82.479 E7.41909
G1 X74.78 Y92.999 E7.94705
G1 X74.384 Y93.058 F7800
G1 E5.94705 F2400
G92 E0
G1 X73.289 Y83.272 F7800
G1 E2 F2400
;TYPE:Solid infill
;WIDTH:0.420179
G1 F1800
G1 X73.832 Y83.815 E2.03856
G1 X73.832 Y84.303 E2.06306
G1 X72.956 Y83.427 E2.12527
G1 X72.468 Y83.427 E2.14977
G1 X73.832 Y84.791 E2.24663
G1 X73.832 Y85.279 E2.27113
G1 X71.98 Y83.427 E2.40264
G1 X71.492 Y83.427 E2.42714
G1 X73.832 Y85.767 E2.5933
G1 X73.832 Y86.255 E2.6178
G1 X71.004 Y83.427 E2.81862
G1 X70.516 Y83.427 E2.84312
G1 X73.832 Y86.743 E3.07859
G1 X73.832 Y87.231 E3.10309
G1 X70.028 Y83.427 E3.37321
G1 X69.54 Y83.427 E3.39771
G1 X73.832 Y87.719 E3.70249
G1 X73.832 Y88.207 E3.72699
G1 X69.052 Y83.427 E4.06642
G1 X68.564 Y83.427 E4.09092
G1 X73.832 Y88.695 E4.465
G1 X73.832 Y89.183 E4.4895
G1 X68.076 Y83.427 E4.89824
G1 X67.588 Y83.427 E4.92274
G1 X73.832 Y89.671 E5.36613
G1 X73.832 Y90.159 E5.39063
G1 X67.1 Y83.427 E5.86867
G1 X66.612 Y83.427 E5.89317
G1 X73.832 Y90.647 E6.40586
G1 X73.832 Y91.135 E6.43036
G1 X66.124 Y83.427 E6.97771
G1 X65.636 Y83.427 E7.00221
G1 X73.832 Y91.623 E7.58421
G1 X73.832 Y92.111 E7.60871
G1 X65.148 Y83.427 E8.22536
G1 X65.148 Y83.915 E8.24986
G1 X73.344 Y92.111 E8.83186
G1 X72.856 Y92.111 E8.85636
G1 X65.148 Y84.403 E9.40371
G1 X65.148 Y84.891 E9.42821
G1 X72.368 Y92.111 E9.9409
G1 X71.88 Y92.111 E9.9654
G1 X65.148 Y85.379 E10.44344
G1 X65.148 Y85.867 E10.46794
G1 X71.392 Y92.111 E10.91133
G1 X70.904 Y92.111 E10.93583
G1 X65.148 Y86.355 E11.34457
G1 X65.148 Y86.843 E11.36907
G1 X70.416 Y92.111 E11.74315
G1 X69.928 Y92.111 E11.76765
G1 X65.148 Y87.331 E12.10708
G1 X65.148 Y87.819 E12.13158
G1 X69.44 Y92.111 E12.43636
G1 X68.952 Y92.111 E12.46086
G1 X65.148 Y88.307 E12.73098
G1 X65.148 Y88.795 E12.75548
G1 X68.464 Y92.111 E12.99095
G1 X67.976 Y92.111 E13.01545
G1 X65.148 Y89.283 E13.21627
G1 X65.148 Y89.771 E13.24077
G1 X67.488 Y92.111 E13.40693
G1 X67 Y92.111 E13.43143
G1 X65.148 Y90.259 E13.56294
G1 X65.148 Y90.747 E13.58744
G1 X66.512 Y92.111 E13.6843
G1 X66.024 Y92.111 E13.7088
G1 X65.148 Y91.235 E13.77101
G1 X65.148 Y91.723 E13.79551
G1 X65.691 Y92.266 E13.83407
G1 E11.83407 F2400
G92 E0
G1 X74.09 Y108.379 F7800
G1 E2 F2400
;TYPE:Perimeter
;WIDTH:0.42
G1 F1800
G1 X64.89 Y108.379 E2.46171
G1 X64.89 Y99.179 E2.92342
G1 X74.09 Y99.179 E3.38513
G1 X74.09 Y108.319 E3.84383
G1 X74.435 Y108.724 F7800
G1 F1800
G1 X64.545 Y108.724 E4.34017
G1 X64.545 Y98.834 E4.83651
G1 X74.435 Y98.834 E5.33285
G1 X74.435 Y108.664 E5.82618
G1 X74.78 Y109.069 F7800
;TYPE:External perimeter
G1 F1800
G1 X64.2 Y109.069 E6.35715
G1 X64.2 Y98.489 E6.88812
G1 X74.78 Y98.489 E7.41909
G1 X74.78 Y109.009 E7.94705
G1 X74.384 Y109.068 F7800
G1 E5.94705 F2400
G92 E0
G1 X73.987 Y99.98 F7800
G1 E2 F2400
;TYPE:Solid infill
;WIDTH:0.420179
G1 F1800
G1 X73.444 Y99.437 E2.03856
G1 X72.956 Y99.437 E2.06306
G1 X73.832 Y100.313 E2.12527
G1 X73.832 Y100.801 E2.14977
G1 X72.468 Y99.437 E2.24663
G1 X71.98 Y99.437 E2.27113
G1 X73.832 Y101.289 E2.40264
G1 X73.832 Y101.777 E2.42714
G1 X71.492 Y99.437 E2.5933
G1 X71.004 Y99.437 E2.6178
G1 X73.832 Y102.265 E2.81862
G1 X73.832 Y102.753 E2.84312
G1 X70.516 Y99.437 E3.07859
G1 X70.028 Y99.437 E3.10309
G1 X73.832 Y103.241 E3.37321
G1 X73.832 Y103.729 E3.39771
G1 X69.54 Y99.437 E3.70249
G1 X69.052 Y99.437 E3.72699
G1 X73.832 Y104.217 E4.06642
G1 X73.832 Y104.705 E4.09092
G1 X68.564 Y99.437 E4.465
G1 X68.076 Y99.437 E4.4895
G1 X73.832 Y105.193 E4.89824
G1 X73.832 Y105.681 E4.92274
G1 X67.588 Y99.437 E5.36613
G1 X67.1 Y99.437 E5.39063
G1 X73.832 Y106.169 E5.86867
G1 X73.832 Y106.657 E5.89317
G1 X66.612 Y99.437 E6.40586
G1 X66.124 Y99.437 E6.43036
G1 X73.832 Y107.145 E6.97771
G1 X73.832 Y107.633 E7.00221
G1 X65.636 Y99.437 E7.58421
G1 X65.148 Y99.437 E7.60871
G1 X73.832 Y108.121 E8.22536
G1 X73.344 Y108.121 E8.24986
G1 X65.148 Y99.925 E8.83186
G1 X65.148 Y100.413 E8.85636
G1 X72.856 Y108.121 E9.40371
G1 X72.368 Y108.121 E9.42821
G1 X65.148 Y100.901 E9.9409
G1 X65.148 Y101.389 E9.9654
G1 X71.88 Y108.121 E10.44344
G1 X71.392 Y108.121 E10.46794
G1 X65.148 Y101.877 E10.91133
G1 X65.148 Y102.365 E10.93583
G1 X70.904 Y108.121 E11.34457
G1 X70.416 Y108.121 E11.36907
G1 X65.148 Y102.853 E11.74315
G1 X65.148 Y103.341 E11.76765
G1 X69.928 Y108.121 E12.10708
G1 X69.44 Y108.121 E12.13158
G1 X65.148 Y103.829 E12.43636
G1 X65.148 Y104.317 E12.46086
G1 X68.952 Y108.121 E12.73098
G1 X68.464 Y108.121 E12.75548
G1 X65.148 Y104.805 E12.99095
G1 X65.148 Y105.293 E13.01545
G1 X67.976 Y108.121 E13.21627
G1 X67.488 Y108.121 E13.24077
G1 X65.148 Y105.781 E13.40693
G1 X65.148 Y106.269 E13.43143
G1 X67 Y108.121 E13.56294
G1 X66.512 Y108.121 E13.58744
G1 X65.148 Y106.757 E13.6843
G1 X65.148 Y107.245 E13.7088
G1 X66.024 Y108.121 E13.77101
G1 X65.536 Y108.121 E13.79551
G1 X64.993 Y107.578 E13.83407
G1 E11.83407 F2400
G92 E0
G1 X74.09 Y124.389 F7800
G1 E2 F2400
;TYPE:Perimeter
;WIDTH:0.42
G1 F1800
G1 X64.89 Y124.389 E2.46171
G1 X64.89 Y115.189 E2.92342
G1 X74.09 Y115.189 E3.38513
G1 X74.09 Y124.329 E3.84383
G1 X74.435 Y124.734 F7800
G1 F1800
G1 X64.545 Y124.734 E4.34017
G1 X64.545 Y114.844 E4.83651
G1 X74.435 Y114.844 E5.33285
G1 X74.435 Y124.674 E5.82618
G1 X74.78 Y125.079 F7800
;TYPE:External perimeter
G1 F1800
G1 X64.2 Y125.079 E6.35715
G1 X64.2 Y114.499 E6.88812
G1 X74.78 Y114.499 E7.41909
G1 X74.78 Y125.019 E7.94705
G1 X74.384 Y125.078 F7800
G1 E5.94705 F2400
G92 E0
G1 X73.987 Y115.99 F7800
G1 E2 F2400
;TYPE:Solid infill
;WIDTH:0.420179
G1 F1800
G1 X73.444 Y115.447 E2.03856
G1 X72.956 Y115.447 E2.06306
G1 X73.832 Y116.323 E2.12527
G1 X73.832 Y116.811 E2.14977
G1 X72.468 Y115.447 E2.24663
G1 X71.98 Y115.447 E2.27113
G1 X73.832 Y117.299 E2.40264
G1 X73.832 Y117.787 E2.42714
G1 X71.492 Y115.447 E2.5933
G1 X71.004 Y115.447 E2.6178
G1 X73.832 Y118.275 E2.81862
G1 X73.832 Y118.763 E2.84312
G1 X70.516 Y115.447 E3.07859
G1 X70.028 Y115.447 E3.10309
G1 X73.832 Y119.251 E3.37321
G1 X73.832 Y119.739 E3.39771
G1 X69.54 Y115.447 E3.70249
G1 X69.052 Y115.447 E3.72699
G1 X73.832 Y120.227 E4.06642
G1 X73.832 Y120.715 E4.09092
G1 X68.564 Y115.447 E4.465
G1 X68.076 Y115.447 E4.4895
G1 X73.832 Y121.203 E4.89824
G1 X73.832 Y121.691 E4.92274
G1 X67.588 Y115.447 E5.36613
G1 X67.1 Y115.447 E5.39063
G1 X73.832 Y122.179 E5.86867
G1 X73.832 Y122.667 E5.89317
G1 X66.612 Y115.447 E6.40586
G1 X66.124 Y115.447 E6.43036
G1 X73.832 Y123.155 E6.97771
G1 X73.832 Y123.643 E7.00221
G1 X65.636 Y115.447 E7.58421
G1 X65.148 Y115.447 E7.60871
G1 X73.832 Y124.131 E8.22536
G1 X73.344 Y124.131 E8.24986
G1 X65.148 Y115.935 E8.83186
G1 X65.148 Y116.423 E8.85636
G1 X72.856 Y124.131 E9.40371
G1 X72.368 Y124.131 E9.42821
G1 X65.148 Y116.911 E9.9409
G1 X65.148 Y117.399 E9.9654
G1 X71.88 Y124.131 E10.44344
G1 X71.392 Y124.131 E10.46794
G1 X65.148 Y117.887 E10.91133
G1 X65.148 Y118.375 E10.93583
G1 X70.904 Y124.131 E11.34457
G1 X70.416 Y124.131 E11.36907
G1 X65.148 Y118.863 E11.74315
G1 X65.148 Y119.351 E11.76765
G1 X69.928 Y124.131 E12.10708
G1 X69.44 Y124.131 E12.13158
G1 X65.148 Y119.839 E12.43636
G1 X65.148 Y120.327 E12.46086
G1 X68.952 Y124.131 E12.73098
G1 X68.464 Y124.131 E12.75548
G1 X65.148 Y120.815 E12.99095
G1 X65.148 Y121.303 E13.01545
G1 X67.976 Y124.131 E13.21627
G1 X67.488 Y124.131 E13.24077
G1 X65.148 Y121.791 E13.40693
G1 X65.148 Y122.279 E13.43143
G1 X67 Y124.131 E13.56294
G1 X66.512 Y124.131 E13.58744
G1 X65.148 Y122.767 E13.6843
G1 X65.148 Y123.255 E13.7088
G1 X66.024 Y124.131 E13.77101
G1 X65.536 Y124.131 E13.79551
G1 X64.993 Y123.588 E13.83407
G1 E11.83407 F2400
G92 E0
G1 X74.09 Y131.199 F7800
G1 E2 F2400
;TYPE:Perimeter
;WIDTH:0.42
G1 F1800
G1 X74.09 Y140.399 E2.46171
G1 X64.89 Y140.399 E2.92342
G1 X64.89 Y131.199 E3.38513
G1 X74.03 Y131.199 E3.84383
G1 X74.435 Y130.854 F7800
G1 F1800
G1 X74.435 Y140.744 E4.34017
G1 X64.545 Y140.744 E4.83651
G1 X64.545 Y130.854 E5.33285
G1 X74.375 Y130.854 E5.82618
G1 X74.78 Y130.509 F7800
;TYPE:External perimeter
G1 F1800
G1 X74.78 Y141.089 E6.35715
G1 X64.2 Y141.089 E6.88812
G1 X64.2 Y130.509 E7.41909
G1 X74.72 Y130.509 E7.94705
G1 X74.779 Y130.905 F7800
G1 X73.987 Y132
;TYPE:Solid infill
;WIDTH:0.420179
G1 F1800
G1 X73.444 Y131.457 E7.98561
G1 X72.956 Y131.457 E8.01011
G1 X73.832 Y132.333 E8.07232
G1 X73.832 Y132.821 E8.09682
G1 X72.468 Y131.457 E8.19368
G1 X71.98 Y131.457 E8.21818
G1 X73.832 Y133.309 E8.34969
G1 X73.832 Y133.797 E8.37419
G1 X71.492 Y131.457 E8.54035
G1 X71.004 Y131.457 E8.56485
G1 X73.832 Y134.285 E8.76567
G1 X73.832 Y134.773 E8.79017
G1 X70.516 Y131.457 E9.02564
G1 X70.028 Y131.457 E9.05014
G1 X73.832 Y135.261 E9.32026
G1 X73.832 Y135.749 E9.34476
G1 X69.54 Y131.457 E9.64954
G1 X69.052 Y131.457 E9.67404
G1 X73.832 Y136.237 E10.01347
G1 X73.832 Y136.725 E10.03797
G1 X68.564 Y131.457 E10.41205
G1 X68.076 Y131.457 E10.43655
G1 X73.832 Y137.213 E10.84529
G1 X73.832 Y137.701 E10.86979
G1 X67.588 Y131.457 E11.31318
G1 X67.1 Y131.457 E11.33768
G1 X73.832 Y138.189 E11.81572
G1 X73.832 Y138.677 E11.84022
G1 X66.612 Y131.457 E12.35291
G1 X66.124 Y131.457 E12.37741
G1 X73.832 Y139.165 E12.92476
G1 X73.832 Y139.653 E12.94926
G1 X65.636 Y131.457 E13.53126
G1 X65.148 Y131.457 E13.55576
G1 X73.832 Y140.141 E14.17241
G1 X73.344 Y140.141 E14.19691
G1 X65.148 Y131.945 E14.77891
G1 X65.148 Y132.433 E14.80341
G1 X72.856 Y140.141 E15.35076
G1 X72.368 Y140.141 E15.37526
G1 X65.148 Y132.921 E15.88795
G1 X65.148 Y133.409 E15.91245
G1 X71.88 Y140.141 E16.39049
G1 X71.392 Y140.141 E16.41499
G1 X65.148 Y133.897 E16.85838
G1 X65.148 Y134.385 E16.88288
G1 X70.904 Y140.141 E17.29162
G1 X70.416 Y140.141 E17.31612
G1 X65.148 Y134.873 E17.6902
G1 X65.148 Y135.361 E17.7147
G1 X69.928 Y140.141 E18.05413
G1 X69.44 Y140.141 E18.07863
G1 X65.148 Y135.849 E18.38341
G1 X65.148 Y136.337 E18.40791
G1 X68.952 Y140.141 E18.67803
G1 X68.464 Y140.141 E18.70253
G1 X65.148 Y136.825 E18.938
G1 X65.148 Y137.313 E18.9625
G1 X67.976 Y140.141 E19.16332
G1 X67.488 Y140.141 E19.18782
G1 X65.148 Y137.801 E19.35398
G1 X65.148 Y138.289 E19.37848
G1 X67 Y140.141 E19.50999
G1 X66.512 Y140.141 E19.53449
G1 X65.148 Y138.777 E19.63135
G1 X65.148 Y139.265 E19.65585
G1 X66.024 Y140.141 E19.71806
G1 X65.536 Y140.141 E19.74256
G1 X64.993 Y139.598 E19.78112
G1 E17.78112 F2400
G92 E0
G1 X90.1 Y130.484 F7800
G1 E2 F2400
;TYPE:Perimeter
;WIDTH:0.42
G1 F1800
G1 X90.1 Y139.684 E2.46171
G1 X80.9 Y139.684 E2.92342
G1 X80.9 Y130.484 E3.38513
G1 X90.04 Y130.484 E3.84383
G1 X90.445 Y130.139 F7800
G1 F1800
G1 X90.445 Y140.029 E4.34017
G1 X80.555 Y140.029 E4.83651
G1 X80.555 Y130.139 E5.33285
G1 X90.385 Y130.139 E5.82618
G1 X90.79 Y129.794 F7800
;TYPE:External perimeter
G1 F1800
G1 X90.79 Y140.374 E6.35715
G1 X80.21 Y140.374 E6.88812
G1 X80.21 Y129.794 E7.41909
G1 X90.73 Y129.794 E7.94705
G1 X90.789 Y130.19 F7800
G1 X89.997 Y131.285
;TYPE:Solid infill
;WIDTH:0.420179
G1 F1800
G1 X89.454 Y130.743 E7.98557
G1 X88.966 Y130.743 E8.01007
G1 X89.842 Y131.618 E8.07224
G1 X89.842 Y132.106 E8.09674
G1 X88.478 Y130.743 E8.19356
G1 X87.99 Y130.743 E8.21806
G1 X89.842 Y132.594 E8.34954
G1 X89.842 Y133.082 E8.37404
G1 X87.502 Y130.743 E8.54017
G1 X87.014 Y130.743 E8.56467
G1 X89.842 Y133.57 E8.76545
G1 X89.842 Y134.058 E8.78995
G1 X86.526 Y130.743 E9.02538
G1 X86.038 Y130.743 E9.04988
G1 X89.842 Y134.546 E9.31997
G1 X89.842 Y135.034 E9.34447
G1 X85.55 Y130.743 E9.64921
G1 X85.062 Y130.743 E9.67371
G1 X89.842 Y135.522 E10.0131
G1 X89.842 Y136.01 E10.0376
G1 X84.574 Y130.743 E10.41165
G1 X84.086 Y130.743 E10.43615
G1 X89.842 Y136.498 E10.84485
G1 X89.842 Y136.986 E10.86935
G1 X83.598 Y130.743 E11.3127
G1 X83.11 Y130.743 E11.3372
G1 X89.842 Y137.474 E11.81521
G1 X89.842 Y137.962 E11.83971
G1 X82.622 Y130.743 E12.35237
G1 X82.134 Y130.743 E12.37687
G1 X89.842 Y138.45 E12.92418
G1 X89.842 Y138.938 E12.94868
G1 X81.646 Y130.743 E13.53065
G1 X81.158 Y130.743 E13.55515
G1 X89.842 Y139.426 E14.17177
G1 X89.354 Y139.426 E14.19627
G1 X81.158 Y131.231 E14.77824
G1 X81.158 Y131.719 E14.80274
G1 X88.866 Y139.426 E15.35005
G1 X88.378 Y139.426 E15.37455
G1 X81.158 Y132.207 E15.88721
G1 X81.158 Y132.695 E15.91171
G1 X87.89 Y139.426 E16.38972
G1 X87.402 Y139.426 E16.41422
G1 X81.158 Y133.183 E16.85757
G1 X81.158 Y133.671 E16.88207
G1 X86.914 Y139.426 E17.29077
G1 X86.426 Y139.426 E17.31527
G1 X81.158 Y134.159 E17.68932
G1 X81.158 Y134.647 E17.71382
G1 X85.938 Y139.426 E18.05321
G1 X85.45 Y139.426 E18.07771
G1 X81.158 Y135.135 E18.38245
G1 X81.158 Y135.623 E18.40695
G1 X84.962 Y139.426 E18.67704
G1 X84.474 Y139.426 E18.70154
G1 X81.158 Y136.111 E18.93697
G1 X81.158 Y136.599 E18.96147
G1 X83.986 Y139.426 E19.16225
G1 X83.498 Y139.426 E19.18675
G1 X81.158 Y137.087 E19.35288
G1 X81.158 Y137.575 E19.37738
G1 X83.01 Y139.426 E19.50886
G1 X82.522 Y139.426 E19.53336
G1 X81.158 Y138.063 E19.63018
G1 X81.158 Y138.551 E19.65468
G1 X82.034 Y139.426 E19.71685
G1 X81.546 Y139.426 E19.74135
G1 X81.003 Y138.884 E19.77987
G1 E17.77987 F2400
G92 E0
G1 X90.1 Y123.674 F7800
G1 E2 F2400
;TYPE:Perimeter
;WIDTH:0.42
G1 F1800
G1 X80.9 Y123.674 E2.46171
G1 X80.9 Y114.474 E2.92342
G1 X90.1 Y114.474 E3.38513
G1 X90.1 Y123.614 E3.84383
G1 X90.445 Y124.019 F7800
G1 F1800
G1 X80.555 Y124.019 E4.34017
G1 X80.555 Y114.129 E4.83651
G1 X90.445 Y114.129 E5.33285
G1 X90.445 Y123.959 E5.82618
G1 X90.79 Y124.364 F7800
;TYPE:External perimeter
G1 F1800
G1 X80.21 Y124.364 E6.35715
G1 X80.21 Y113.784 E6.88812
G1 X90.79 Y113.784 E7.41909
G1 X90.79 Y124.304 E7.94705
G1 X90.394 Y124.364 F7800
G1 E5.94705 F2400
G92 E0
G1 X89.997 Y115.275 F7800
G1 E2 F2400
;TYPE:Solid infill
;WIDTH:0.420179
G1 F1800
G1 X89.454 Y114.733 E2.03852
G1 X88.966 Y114.733 E2.06302
G1 X89.842 Y115.608 E2.12519
G1 X89.842 Y116.096 E2.14969
G1 X88.478 Y114.733 E2.24651
G1 X87.99 Y114.733 E2.27101
G1 X89.842 Y116.584 E2.40249
G1 X89.842 Y117.072 E2.42699
G1 X87.502 Y114.733 E2.59312
G1 X87.014 Y114.733 E2.61762
G1 X89.842 Y117.56 E2.8184
G1 X89.842 Y118.048 E2.8429
G1 X86.526 Y114.733 E3.07833
G1 X86.038 Y114.733 E3.10283
G1 X89.842 Y118.536 E3.37292
G1 X89.842 Y119.024 E3.39742
G1 X85.55 Y114.733 E3.70216
G1 X85.062 Y114.733 E3.72666
G1 X89.842 Y119.512 E4.06605
G1 X89.842 Y120 E4.09055
G1 X84.574 Y114.733 E4.4646
G1 X84.086 Y114.733 E4.4891
